src/assets/arrow-right.svg

<?xml version="1.0" encoding="UTF-8"?>
<svg width="23px" height="12px" viewBox="0 0 23 12" version="1.1" xmlns="http://www.w3.org/2000/svg" xmlns:xlink="http://www.w3.org/1999/xlink">
    <!-- Generator: Sketch 48.2 (47327) - http://www.bohemiancoding.com/sketch -->
    <title>Shape</title>
    <desc>Created with Sketch.</desc>
    <defs></defs>
    <g id="05-3-Footer-desktop-small-option1" stroke="none" stroke-width="1" fill="none" fill-rule="evenodd" transform="translate(-1396.000000, -708.000000)">
        <g id="Footer" transform="translate(0.000000, 630.000000)" fill="#FFFFFF" fill-rule="nonzero">
            <g id="Newsletter" transform="translate(240.000000, 51.000000)">
                <g id="Input" transform="translate(815.000000, 0.000000)">
                    <g id="Button01" transform="translate(319.000000, 0.000000)">
                        <g id="download-arrow" transform="translate(33.500000, 33.000000) rotate(-90.000000) translate(-33.500000, -33.000000) translate(27.500000, 21.500000)">
                            <path d="M10.1038916,15.9763153 C10.4174963,15.650817 10.9112116,15.650817 11.2248163,15.9763153 C11.5278261,16.3018135 11.5278261,16.8142534 11.2248163,17.1397517 L6.52781008,22.015628 C6.38230884,22.1666474 6.18030226,22.2597517 5.95639986,22.2597517 C5.73249746,22.2597517 5.53049088,22.1666474 5.38428332,22.015628 L0.687277136,17.1397517 C0.373672513,16.8142534 0.373672513,16.3018135 0.687277136,15.9763153 C1.00088176,15.650817 1.49459715,15.650817 1.80820177,15.9763153 L5.16038092,19.4673576 L5.16038092,1.07423049 C5.1596746,0.620438971 5.51848349,0.259751686 5.95569354,0.259751686 C6.39290359,0.259751686 6.74041142,0.620438971 6.74041142,1.07423049 L6.74041142,19.4666245 L10.1038916,15.9763153 Z" id="Shape"></path>
                        </g>
                    </g>
                </g>
            </g>
        </g>
    </g>
</svg>

<svg height="12" viewBox="0 0 23 12" width="23" xmlns="http://www.w3.org/2000/svg"><path d="m10.1038916 15.9763153c.3136047-.3254983.80732-.3254983 1.1209247 0 .3030098.3254982.3030098.8379381 0 1.1634364l-4.69700622 4.8758763c-.14550124.1510194-.34750782.2441237-.57141022.2441237s-.42590898-.0931043-.57211654-.2441237l-4.69700618-4.8758763c-.31360463-.3254983-.31360463-.8379382 0-1.1634364.31360462-.3254983.80732001-.3254983 1.12092463 0l3.35217915 3.4910423v-18.39312711c-.00070632-.45379152.35810257-.8144788.79531262-.8144788s.78471788.36068728.78471788.8144788v18.39239401z" fill="#fff" transform="matrix(0 -1 1 0 0 12)"/></svg>
